Icons/Colored/Gear.svg

<svg xmlns="http://www.w3.org/2000/svg" xml:space="preserve" fill-rule="evenodd" stroke-linejoin="round" stroke-miterlimit="2" clip-rule="evenodd" viewBox="0 0 64 64">
  <g id="grey">
    <path fill="#acabab" fill-rule="nonzero" d="M51.195 40.148a6.445 6.445 0 0 1 6.141-3.91 25.47 25.47 0 0 0 .066-8.043 6.531 6.531 0 0 1-2.625-.511 6.422 6.422 0 0 1-3.918-5.907 6.42 6.42 0 0 1 2.047-4.699 25.419 25.419 0 0 0-5.625-5.734 6.42 6.42 0 0 1-4.625 1.965c-3.523 0-6.426-2.899-6.426-6.422 0-.078.004-.153.004-.231a25.499 25.499 0 0 0-8.043-.066c.004.039.004.082.004.117 0 3.52-2.898 6.418-6.418 6.418a6.41 6.41 0 0 1-2.515-.516 6.319 6.319 0 0 1-2.192-1.531 26.02 26.02 0 0 0-5.73 5.649 6.43 6.43 0 0 1 1.961 4.625c0 3.523-2.899 6.425-6.426 6.425-.07 0-.141 0-.215-.004a25.47 25.47 0 0 0-.062 8.043h.105c3.52 0 6.418 2.899 6.418 6.418a6.431 6.431 0 0 1-2.035 4.692 25.557 25.557 0 0 0 5.633 5.738 6.405 6.405 0 0 1 4.609-1.953c3.52 0 6.41 2.894 6.41 6.41v.223a25.47 25.47 0 0 0 8.043.066v-.086c0-3.523 2.899-6.426 6.426-6.426a6.42 6.42 0 0 1 4.68 2.028 25.72 25.72 0 0 0 5.742-5.637 6.47 6.47 0 0 1-1.434-7.141Zm-23.152 1.465a10.426 10.426 0 0 1-6.344-9.582c0-5.711 4.699-10.41 10.41-10.41S42.52 26.32 42.52 32.031a10.418 10.418 0 0 1-10.407 10.41 10.4 10.4 0 0 1-4.07-.828Z"/>
  </g>
</svg>

<?xml version="1.0" encoding="UTF-8" standalone="no"?>
<!DOCTYPE svg PUBLIC "-//W3C//DTD SVG 1.1//EN" "http://www.w3.org/Graphics/SVG/1.1/DTD/svg11.dtd">
<svg width="100%" height="100%" viewBox="0 0 64 64" version="1.1" xmlns="http://www.w3.org/2000/svg" xmlns:xlink="http://www.w3.org/1999/xlink" xml:space="preserve" xmlns:serif="http://www.serif.com/" style="fill-rule:evenodd;clip-rule:evenodd;stroke-linejoin:round;stroke-miterlimit:2;">
    <g id="surface1">
        <path d="M51.195,40.148C52.234,37.707 54.684,36.145 57.336,36.238C57.785,33.578 57.805,30.863 57.402,28.195C56.504,28.207 55.609,28.035 54.777,27.684C52.406,26.684 50.859,24.348 50.859,21.777C50.859,19.992 51.602,18.293 52.906,17.078C51.348,14.883 49.449,12.945 47.281,11.344C46.07,12.602 44.398,13.309 42.656,13.309C39.133,13.309 36.23,10.41 36.23,6.887C36.23,6.809 36.234,6.734 36.234,6.656C33.574,6.207 30.859,6.188 28.191,6.59C28.195,6.629 28.195,6.672 28.195,6.707C28.195,10.227 25.297,13.125 21.777,13.125C20.914,13.125 20.059,12.949 19.262,12.609C18.43,12.262 17.684,11.738 17.07,11.078C14.879,12.652 12.945,14.559 11.34,16.727C12.594,17.938 13.301,19.609 13.301,21.352C13.301,24.875 10.402,27.777 6.875,27.777C6.805,27.777 6.734,27.777 6.66,27.773C6.215,30.438 6.191,33.148 6.598,35.816L6.703,35.816C10.223,35.816 13.121,38.715 13.121,42.234C13.121,44.012 12.383,45.711 11.086,46.926C12.648,49.125 14.551,51.059 16.719,52.664C17.926,51.414 19.59,50.711 21.328,50.711C24.848,50.711 27.738,53.605 27.738,57.121L27.738,57.344C30.398,57.793 33.113,57.813 35.781,57.41L35.781,57.324C35.781,53.801 38.68,50.898 42.207,50.898C43.977,50.898 45.676,51.633 46.887,52.926C49.086,51.359 51.023,49.457 52.629,47.289C50.73,45.434 50.16,42.594 51.195,40.148ZM28.043,41.613C24.203,39.984 21.699,36.199 21.699,32.031C21.699,26.32 26.398,21.621 32.109,21.621C37.82,21.621 42.52,26.32 42.52,32.031C42.52,33.43 42.238,34.813 41.691,36.098C40.063,39.938 36.281,42.441 32.113,42.441C30.715,42.441 29.328,42.16 28.043,41.613Z" style="fill:#acabab;fill-rule:nonzero;"/>
    </g>
</svg>
